X:179
T:Mrs Gardner's Reel
O:No179 William Clarke of Feltwell
M:4/4
L:1/8
N:In m.s. bar A2 is |FDDG FGAF DA|
N:In m.s. no repeat sign at end of B music.
K:G
D|GAGe dGeG|FDDG F/G/A/F/ DA|GAGe dGeG|dg f/g/a/f/ g3::d|gdbd c'dbd|eg c'/b/a/g/ faab|gdbd c'dad|dg f/g/a/f/ g3d|gdbd c'dbd|dg c'/b/a/g/ faab|ecea ecea|dg f/g/a/f/g3:|

